X:1
T:Title
%%score { ( 1 4 5 ) | ( 2 3 ) } ( 6 7 ) ( 8 9 )
L:1/8
Q:1/4=105
M:4/4
K:G
V:1 treble nm="Grand Piano, Soprano"
V:4 treble 
V:5 treble 
V:2 bass 
V:3 bass 
V:6 treble nm="Drawbar Organ, Staff-1"
V:7 treble 
V:8 bass nm="Choir Pad, Watching in the Meadows"
V:9 bass 
V:1
 D2 EF G2 A2 | G4 F2 z2 | F2 E2 F2 E2 | E4 D2 z2 | D2 EF G2 B2 | B2 A2 F2 AG | F6 z2 | z8 | %8
 d2 ^cd e2 B2 | d4 c4 | B2 B2 c3 B | A8 | A2 ^GA B2 c2 | d2 d2 c2 A2 | G6 A2 | A4 B2 z2 | %16
 A2 ^GA B2 c2 | d2 e2 d2 c2 | B6 z2 | G6 z2 | d6 d2 | d6 z2 | D6 D2 | D8 |] %24
V:2
 B,4 B,4 | C6 z2 | [G,^C]4 [E,A,]4 | [F,C]6 z2 | B,4 B,2 D2 | D2 ^C2 D2 [B,D]2 | D4 z2 E2 | D8 | %8
 D4 z4 | E4 E4 | =F4 E4 | E4 E4 | [DF]2 z2 [DF]4 | G4 [EG]2 E2 | [B,D]6 [CF]2 | [CF]4 [B,G]2 z2 | %16
 F4 G2 A2 | B2 c2 B2 [EG]2 | [DG]4 C4 | z8 | z8 | z8 | z8 | z8 |] %24
V:3
 x8 | x8 | x8 | x8 | x8 | x8 | z4 ^C4 | x8 | x8 | x8 | x8 | x8 | x8 | x8 | x8 | x8 | x8 | x8 | x8 | %19
 x8 | x8 | x8 | x8 | x8 |] %24
V:4
 x8 | x8 | x8 | x8 | x8 | x8 | x8 | x8 | x8 | x8 | x8 | z4 G4 | x8 | x8 | x8 | x8 | x8 | x8 | %18
 z4 z2 A2 | x8 | x8 | x8 | x8 | x8 |] %24
V:5
 x8 | x8 | x8 | x8 | x8 | x8 | x8 | x8 | x8 | x8 | x8 | x8 | x8 | x8 | x8 | x8 | x8 | x8 | z4 F4 | %19
 x8 | x8 | x8 | x8 | x8 |] %24
V:6
 z8 | z8 | z8 | z8 | z8 | z8 | z8 | z8 | z8 | z8 | z8 | z8 | z8 | z8 | z8 | z8 | z8 | z8 | z8 | %19
 [Dd]2 [Ee][Ff] [Gg]2 [Aa]2 | [Gg]4 [Ff]2 D2 | D2 EF G2 A2 | G4 F4 | [B,G]8 |] %24
V:7
 x8 | x8 | x8 | x8 | x8 | x8 | x8 | x8 | x8 | x8 | x8 | x8 | x8 | x8 | x8 | x8 | x8 | x8 | x8 | %19
 x8 | x8 | z4 B,4 | C8 | x8 |] %24
V:8
 D,8 | D,8 | _B,,4 D,,4 | A,,4 D,,4 | G,,4 E,,4 | A,,4 [D,A,]2 G,,2 | [A,,A,]4 [A,,G,]4 | %7
 F,4- [C,F,]4 | [B,,G,]4 [E,^G,B,]4 | [^G,B,]4 [A,C]4 | [D,D]4 ^G,2- [D,G,]2 | [C,A,]4 ^C,4 | %12
 D,2 z2 C4 | [B,D]4 C2 [C,C]2 | D,4 D,4 | F,4 D,2 z2 | [CD]4 [B,D]2 [A,D]2 | %17
 D2- [F,D]2 [G,D]2 C,2 | D,4 D,4 | [G,B,]8 | [A,C]8 | B,4 z4 | D,8 | D,8 |] %24
V:9
 G,,4 D,,4 | A,,4 D,,4 | x8 | x8 | x8 | x8 | x8 | D,4 z4 | x8 | x8 | z4 E,2 z2 | x8 | x8 | x8 | %14
 x8 | x8 | x8 | G,2 z2 z4 | x8 | z4 D,4 | z4 D,4 | G,2 D,2 G,,2 D,,2 | A,,4 D,,4 | G,,4 D,,4 |] %24

